SharedPackages/Infrastructure/DesignResourcesKitIcons/Sources/DesignResourcesKitIcons/DesignSystemImages.xcassets/Color/16px/Bookmarks-New-Color-16.imageset/Bookmarks-New-Color-16.svg

<svg width="16" height="16" viewBox="0 0 16 16" fill="none" xmlns="http://www.w3.org/2000/svg">
<path d="M11.7386 3.5H8.26136C6.7363 3.5 5.5 4.7363 5.5 6.26136V13.9543C5.5 15.0501 6.71526 15.7092 7.63373 15.1115L9.24695 14.0618C9.70478 13.7638 10.2952 13.7638 10.753 14.0618L12.3663 15.1115C13.2847 15.7092 14.5 15.0501 14.5 13.9543V6.26136C14.5 4.7363 13.2637 3.5 11.7386 3.5Z" fill="#4397E0"/>
<path d="M9.09326 13.5713C9.69775 13.2384 10.4412 13.2621 11.0259 13.6426L12.6392 14.6924L12.6943 14.7261C13.2724 15.0473 14 14.6312 14 13.9541V6.26123C13.9999 5.05139 13.0498 4.06348 11.855 4.00293L11.7388 4H8.26123C7.01242 4.00007 6.00007 5.01242 6 6.26123V13.9541C6 14.653 6.775 15.0735 7.36084 14.6924L8.97412 13.6426L9.09326 13.5713ZM15 13.9541C15 15.4001 13.4464 16.2881 12.2119 15.6021L12.0938 15.5308L10.4805 14.481C10.2067 14.3028 9.85828 14.2913 9.5752 14.4473L9.51953 14.481L7.90625 15.5308C6.6552 16.3446 5 15.4467 5 13.9541V6.26123C5.00007 4.46013 6.46013 3.00007 8.26123 3H11.7388L11.9062 3.00439C13.6295 3.09164 14.9999 4.51631 15 6.26123V13.9541Z" fill="#045EB2"/>
<path opacity="0.2" d="M11.7471 3.00001C11.7443 3 11.7415 3 11.7386 3H8.26136C6.46016 3 5 4.46016 5 6.26136V13.4697L6.51966 12.4808C6.81169 12.2908 7.18831 12.2908 7.48034 12.4808L9.09356 13.5306C10.3446 14.3447 12 13.4469 12 11.9543V4.26136C12 3.81418 11.91 3.38803 11.7471 3.00001Z" fill="#034180"/>
<path d="M7.73864 0.5H4.26136C2.7363 0.5 1.5 1.7363 1.5 3.26136V10.9543C1.5 12.0501 2.71526 12.7092 3.63373 12.1115L5.24695 11.0618C5.70478 10.7638 6.29522 10.7638 6.75305 11.0618L8.36627 12.1115C9.28473 12.7092 10.5 12.0501 10.5 10.9543V3.26136C10.5 1.7363 9.26369 0.5 7.73864 0.5Z" fill="#4397E0"/>
<path d="M5.09326 10.5713C5.69775 10.2384 6.44125 10.2621 7.02588 10.6426L8.63916 11.6924L8.69434 11.7261C9.27243 12.0473 10 11.6312 10 10.9541V3.26123C9.99993 2.05139 9.04978 1.06348 7.85498 1.00293L7.73877 1H4.26123C3.01242 1.00007 2.00007 2.01242 2 3.26123V10.9541C2 11.653 2.775 12.0735 3.36084 11.6924L4.97412 10.6426L5.09326 10.5713ZM11 10.9541C11 12.4001 9.44642 13.2881 8.21191 12.6021L8.09375 12.5308L6.48047 11.481C6.20667 11.3028 5.85828 11.2913 5.5752 11.4473L5.51953 11.481L3.90625 12.5308C2.6552 13.3446 1 12.4467 1 10.9541V3.26123C1.00007 1.46013 2.46013 7.19595e-05 4.26123 0H7.73877L7.90625 0.00439453C9.62951 0.0916383 10.9999 1.51631 11 3.26123V10.9541Z" fill="#045EB2"/>
</svg>

<svg fill="none" viewBox="0 0 16 16" xmlns="http://www.w3.org/2000/svg">
  <path fill="url(#Bookmarks-New-Color-16_svg__a)" d="M11.739 3.5H8.26A2.761 2.761 0 0 0 5.5 6.261v7.693a1.38 1.38 0 0 0 2.134 1.157l1.613-1.05a1.38 1.38 0 0 1 1.506 0l1.613 1.05a1.38 1.38 0 0 0 2.134-1.157V6.261A2.761 2.761 0 0 0 11.739 3.5Z"/>
  <path fill="url(#Bookmarks-New-Color-16_svg__b)" d="M9.093 13.571a1.88 1.88 0 0 1 1.933.072l1.613 1.05.055.033A.881.881 0 0 0 14 13.954V6.261a2.26 2.26 0 0 0-2.145-2.258L11.739 4H8.26A2.261 2.261 0 0 0 6 6.261v7.693a.88.88 0 0 0 1.36.738l1.614-1.05.12-.07Zm5.907.383c0 1.446-1.554 2.334-2.788 1.648l-.118-.071-1.614-1.05a.881.881 0 0 0-.905-.034l-.055.034-1.614 1.05C6.656 16.345 5 15.447 5 13.954V6.261A3.261 3.261 0 0 1 8.261 3h3.478l.167.004A3.261 3.261 0 0 1 15 6.261v7.693Z"/>
  <path fill="#14307E" d="M11.747 3H8.261A3.261 3.261 0 0 0 5 6.261v7.209l1.52-.99a.88.88 0 0 1 .96 0l1.614 1.05c1.25.815 2.906-.083 2.906-1.576V4.261c0-.447-.09-.873-.253-1.261Z" opacity=".2"/>
  <path fill="url(#Bookmarks-New-Color-16_svg__c)" d="M7.739.5H4.26A2.761 2.761 0 0 0 1.5 3.261v7.693a1.38 1.38 0 0 0 2.134 1.157l1.613-1.05a1.38 1.38 0 0 1 1.506 0l1.613 1.05a1.38 1.38 0 0 0 2.134-1.157V3.261A2.761 2.761 0 0 0 7.739.5Z"/>
  <path fill="url(#Bookmarks-New-Color-16_svg__d)" d="M5.093 10.571a1.88 1.88 0 0 1 1.933.072l1.613 1.05.055.033A.881.881 0 0 0 10 10.954V3.261a2.26 2.26 0 0 0-2.145-2.258L7.739 1H4.26A2.261 2.261 0 0 0 2 3.261v7.693a.88.88 0 0 0 1.36.738l1.614-1.05.12-.07Zm5.907.383c0 1.446-1.554 2.334-2.788 1.648l-.118-.071-1.614-1.05a.88.88 0 0 0-.905-.034l-.055.034-1.614 1.05C2.656 13.345 1 12.447 1 10.954V3.261A3.261 3.261 0 0 1 4.261 0H7.74l.167.004A3.261 3.261 0 0 1 11 3.261v7.693Z"/>
  <defs>
    <linearGradient id="Bookmarks-New-Color-16_svg__a" x1="10" x2="10" y1="3.5" y2="16.5" gradientUnits="userSpaceOnUse">
      <stop stop-color="#8FABF9"/>
      <stop offset="1" stop-color="#7295F6"/>
    </linearGradient>
    <linearGradient id="Bookmarks-New-Color-16_svg__b" x1="10" x2="10" y1="3.5" y2="16.5" gradientUnits="userSpaceOnUse">
      <stop stop-color="#3969EF"/>
      <stop offset="1" stop-color="#1E42A4"/>
    </linearGradient>
    <linearGradient id="Bookmarks-New-Color-16_svg__c" x1="6" x2="6" y1=".5" y2="13.5" gradientUnits="userSpaceOnUse">
      <stop stop-color="#8FABF9"/>
      <stop offset="1" stop-color="#7295F6"/>
    </linearGradient>
    <linearGradient id="Bookmarks-New-Color-16_svg__d" x1="6" x2="6" y1=".5" y2="13.5" gradientUnits="userSpaceOnUse">
      <stop stop-color="#3969EF"/>
      <stop offset="1" stop-color="#1E42A4"/>
    </linearGradient>
  </defs>
</svg>
